X:1
T:O sotes gens
T:Clement Janequin
T:Source : Livre XXV de 28 xhansons nouvelles à 4 parties---Paris---P.Attaungnant---1547. Editor : André Vierendeels (26/07/18) Notes : Original clefs : C1, C3, C4, F4 Original note values have been halved Editorial accidentals above the staff
T:O sotes gens
T:©
T:©
T:©
C:Clement Janequin
Z:©
%%score [ 1 [ 2 3 ] 4 ]
L:1/8
Q:1/4=120
M:2/2
K:F
V:1 treble nm="Alto" snm="A"
V:2 treble-8 nm="Tenor 1" snm="T 1"
V:3 treble-8 nm="Tenor 2" snm="T 2"
V:4 bass nm="Bass" snm="B"
V:1
 G8 | G6 A2 | A8 | z2 A2 G2 G2 | F2 F2 E2 F2 | G2 G2 A4 | z2 A2 G2 G2 | F2 F2 E2 A2 | %8
w: O|so- tes|gens|qui s'en vont|tra- vail- ler, à|veoir ung feu|de tel bois|al- lu- mé, a-|
[M:3/2] A8 A4 |[M:2/2] G2 F2 B2 B2 | A2 A2 G2 F2 | EDEF G3 G | G2 G2 B3 B | A2 G2 G2 F2 | %14
w: res- tez|vous pour vous é-|mer- veil- ler, à|veoir _ _ _ _ ung|feu, ung feu de|tel bois al- lu-|
 G4 z2 G2 | G2 G2 A3 A | A2 G2 F2 ED | E8 | B4 A2 A2 | G2 G2 GGGG | F4 E2 F2 | A2 A2 c3 c | %22
w: mé, qui|plus il bru- l'et|moins est con- su- *|mé,|et si ce|cas trop es- tran- ge vous|sem- ble, al-|lez veoir cel- le'où|
 c2 c2 B2 B2 | A8 | z2 F2 F2 F2 | BBBB A2 G2- | GF F4 E2 | F2 C2 C2 C2 | F3 F F2 F2 | BBBB A2 G2- | %30
w: il est en- flam-|mé,|vous le croi-|rez et bru- le- rez en-|* * sem- *|ble, vous le croi-|rez, vous le croi-|rez et bru- le- rez en-|
 GF F4 E2 | F8 |] %32
w: * * sem- *|ble.|
V:2
 e8 | e6 c2 | c2 c2 c3 A | A2 f2 d2 d2 | d2 d2 c2 f2 | f2 e2 f4 | z2 f2 d2 d2 | d2 d2 c2 f2 | %8
w: O|so- tes|gens, O so- tes|gens qui s'en vont|tra- vail- ler, à|veoir ung feu|de tel bois|al- lu- mé, a-|
[M:3/2] f8 f4 |[M:2/2] e2 c2 f4- | f2 e2 d3 d | c4 z2 d2 | e3 f g2 f2 | f2 d2 d2 d2 | dddd e4 | %15
w: res- tez|vous pour vous|_ é- mer- veil-|ler, à|veoir ung feu de|tel bois al- lu-|mé, qui plus il bru-|
 e4 z2 F2 | F2 G2 A2 B2 | c2 c2 cccc | dcde f4 | e4 z2 G2 | AGAB c2 A2 | f2 ff e3 e | e2 c2 d2 e2 | %23
w: le, et|moins est con- su-|mé, et si ce cas trop|es- tran- ge vous sem-|ble, trop|es- tran- ge vous sem- ble,|al- lez veoir cel- le'où|il est en- flam-|
 f2 F2 F2 F2 | d4 d2 d2 | d2 f3 fee | d2 B2 c4 | c2 A2 A2 A2 | d4 d2 d2 | d2 f3 fee | B2 c4 c2 | %31
w: mé, vous le croi-|rez, vous le|croi- rez et bru- le-|rez en- sem-|ble, vous le croi-|rez, vous le|croi- rez et bru- le-|rez en sem-|
 c8 |] %32
w: ble.|
V:3
 c8 | z2 c2 c4- | c2 A2 A2 c2 | c2 c2 B2 B2 | A2 F2 A2 A2 | c4 z2 c2 | c2 c2 B2 B2 | A4 z2 c2 | %8
w: O,|O so-|* tes gens qui|s'en vont tra- vail-|ler, à veoir ung|feu de|tel bois al- lu-|mé, a-|
[M:3/2] c8 c4 |[M:2/2] c2 A2 d4- | d2 c2 B3 A | G2 c2 c2 B2 | c3 B/A/ G2 d2 | c2 B2 A2 A2 | %14
w: res- tez|vous pour vous|_ é- mer- veil-|ler à veoir ung|feu _ _ _ de|tel bois al- lu-|
 G2 G2 G2 G2 | c4 c4 | z2 c2 c2 B2 | A3 G G2 G2 | GGGG FGAB | c2 cc BABc | d2 A2 z2 d2 | %21
w: mé, qui plus y|bru- le|et moins est|con- su- mé, et|si ce cas trop es- tan- ge vous|sem- ble trop es- tran- ge vous|sem- ble, al-|
 d2 d2 A3 B | c2 F2 BABc | d2 d2 c2 F2 | F2 F2 BABc | d2 d2 ABcA | BAGF G4 | F4 z2 F2 | %28
w: lez veoir cel- le'où|il est en- * * *|* flam- mé, vous|le croi- rez _ _ _|_ et bru- le- rez en-|sem- * * * *|ble, vous|
 F2 F2 BABc | d2 d2 ABcA | BAGF G4 | F8 |] %32
w: le croi- rez _ _ _|_ et bru- le- rez en-|sem- * * * *|ble.|
V:4
 C,8 | C,6 F,2 | F,6 F,2 | F,2 F,2 G,2 G,2 | D,2 D,2 A,,2 D,2 | C,4 z2 F,2 | E,2 F,2 G,2 G,2 | %7
w: O|so- tes|gens qui|s'en vont tra- vail-|ler, à veoir ung|feu de|tel bois al- lu-|
 D,E,F,G, A,2 F,2 |[M:3/2] F,8 F,4 |[M:2/2] C,2 F,2 B,,A,,B,,C, | D,2 A,,2 B,,2 B,,2 | %11
w: mé, _ _ _ _ a-|res- tez|vous pour vous é- mer- veil-|ler à veoir ung|
 C,3 D, E,F, G,2 | z4 z2 B,,2 | F,2 G,2 D,2 D,2 | G,,4 C,4 | C,2 C,2 F,3 F, | F,2 E,2 D,2 D,2 | %17
w: feu _ _ _ _|de|tel bois al- lu-|mé, qui|plus il bru- l'et|moins est con- su-|
 C,8 | z4 z2 F,2 | C,D,E,F, G,2 G,G, | D,E,F,G, A,2 D,2 | z4 z2 A,2 | A,A, A,2 G,2 G,2 | %23
w: mé,|trop|es- tran- ge vous sem- ble, trop|es- tran- ge vous sem- ble,|ce-|le'où il est en- flam-|
 F,2 F,2 F,2 F,2 | B,,4 z2 B,,2 | B,,2 B,,2 F,F,C,C, | D,2 D,2 C,4 | F,,2 F,2 F,2 F,2 | %28
w: mé, vous le croi-|rez et|bru- le- rez, vous bru- le-|rez en- sem-|ble, vous le cro-|
 B,,4 z2 B,,2 | B,,2 B,,2 F,F,C,C, | D,2 D,2 C,4 | F,,8 |] %32
w: rez et|bru- le rez, et bru- le-|rez en- sem-|ble.|

